X:1     %Music
T:A Sweet County Life
B:Cecil Sharp's Collection of English Folk Songs, Vol 2, p 184, No 250, ed Maud Karpeles , Oxford University Press, 1974
S:William Henry Watts at Tewkesbury, Gloucestershire, 11 April 1908
Z:Cecil Sharp
F:http://www.folkinfo.org/songs
M:3/4     %Meter
L:1/8     %
K:F
A2 |d2 d2 c2 |d4 DE |F2 A2 G2 | F2 E4 |
w:A sweet coun-try life is most plea-sant and charm-ing, 
d2 dc dc |d4 de |f2 e2 d2 |[M:4/4][L:1/8]c2 A4 
w:All for to walk a-broad on a fine sum-mer's morn-ing,
M:4/4     %Meter
L:1/8     %
G2 |[M:3/4][L:1/8]F3 F EF | G4 GG |A2 f3 d |[M:4/4][L:1/8]e2 d4
w:Bright Phoe-bus did a-shine and the hills was a-dorn-ing                                    
M:4/4     %Meter
L:1/8     %
 c2 |[M:3/4][L:1/8]d2 AA BG |F2 G2 AB |c4 EG |F2 D2 |]
w:As Mol-ly she sat a-milk-ing on a fair sum-mer's morn-ing.